static/images/mobile/copyright/wikibooks-wordmark.svg

<svg xmlns="http://www.w3.org/2000/svg" width="120" height="15" viewBox="0 0 120 15"><g fill="none"><path fill="#0B2645" d="M0,0.271140894 L3.49609536,0.271140894 L5.94051988,10.7779196 L8.36599519,0.271140894 L11.8810394,0.271140894 L14.3065147,10.7779196 L16.7509389,0.271140894 L20.2186108,0.271140894 L16.8835822,14.7288556 L12.6768985,14.7288556 L10.1093056,3.73789265 L7.57013611,14.7288556 L3.36345236,14.7288556 L0,0.271140894 Z M22.6156627,0.271140894 L26.2633499,0.271140894 L26.2633499,14.7288556 L22.6156627,14.7288556 L22.6156627,0.271140894 Z M29.8541919,0.271140894 L33.5018781,0.271140894 L33.5018781,5.54873786 L38.7602324,0.271140894 L42.995341,0.271140894 L36.1831649,7.11749273 L43.6964523,14.7288556 L39.1297397,14.7288556 L33.5018781,9.03486138 L33.5018781,14.7288556 L29.8541919,14.7288556 L29.8541919,0.271140894 Z M44.8997168,0.271140894 L48.547403,0.271140894 L48.547403,14.7288556 L44.8997168,14.7288556 L44.8997168,0.271140894 Z"/><path fill="#0A4E98" d="M57.640108,5.85861873 C58.2148867,5.85861873 58.6507135,5.72951144 58.9475916,5.47127207 C59.244449,5.2130504 59.3928916,4.83215981 59.3928916,4.3286003 C59.3928916,3.83151456 59.244449,3.45223887 58.9475916,3.19076969 C58.6507135,2.92932176 58.2148867,2.79857832 57.640108,2.79857832 L55.6220363,2.79857832 L55.6220363,5.85861873 L57.640108,5.85861873 Z M57.7632771,12.1820535 C58.4959647,12.1820535 59.0470638,12.0238885 59.4165781,11.7075516 C59.786075,11.3912217 59.9708373,10.9134971 59.9708373,10.2743707 C59.9708373,9.64816351 59.787655,9.17850634 59.4213181,8.86539566 C59.0549605,8.55229915 58.5022813,8.3957385 57.7632771,8.3957385 L55.6220363,8.3957385 L55.6220363,12.1820535 L57.7632771,12.1820535 Z M61.1551518,6.98192229 C61.938369,7.21434091 62.5447344,7.64364674 62.9742583,8.26985039 C63.403758,8.89606821 63.6185269,9.66430546 63.6185269,10.5745657 C63.6185269,11.9690137 63.1574198,13.0083954 62.2352472,13.6927037 C61.3130503,14.3770191 59.9108241,14.7191732 58.0285617,14.7191732 L51.9743501,14.7191732 L51.9743501,0.261458555 L57.4506195,0.261458555 C59.4149911,0.261458555 60.8377472,0.564893979 61.7188878,1.17172233 C62.600004,1.77857901 63.0405674,2.75017371 63.0405812,4.08650642 C63.0405674,4.79019711 62.8795019,5.38896865 62.5573815,5.88282812 C62.2352368,6.37670176 61.7678269,6.74306884 61.1551518,6.98192229 L61.1551518,6.98192229 Z M71.8302231,2.70174431 C70.7185377,2.70174431 69.8563574,3.12138196 69.2436789,3.96061831 C68.63099,4.79987945 68.3246524,5.98128766 68.3246524,7.50484294 C68.3246524,9.02195631 68.63099,10.2001347 69.2436789,11.0393817 C69.8563574,11.8786357 70.7185377,12.2982557 71.8302231,12.2982557 C72.9482044,12.2982557 73.8135412,11.8786357 74.4262371,11.0393817 C75.0389121,10.2001347 75.345267,9.02195631 75.345267,7.50484294 C75.345267,5.98128766 75.0389121,4.79987945 74.4262371,3.96061831 C73.8135412,3.12138196 72.9482044,2.70174431 71.8302231,2.70174431 L71.8302231,2.70174431 Z M71.8302231,0 C74.1040958,0 75.8853025,0.664957796 77.1738467,1.99483443 C78.4623666,3.32473586 79.106649,5.16140536 79.106649,7.50484294 C79.106649,9.84183861 78.4623666,11.6752783 77.1738467,13.0051656 C75.8853025,14.3350564 74.1040958,15 71.8302231,15 C69.5626497,15 67.783023,14.3350564 66.4913327,13.0051656 C65.1996389,11.6752783 64.5537972,9.84183861 64.5537972,7.50484294 C64.5537972,5.16140536 65.1996389,3.32473586 66.4913327,1.99483443 C67.783023,0.664957796 69.5626497,0 71.8302231,0 L71.8302231,0 Z M86.929888,2.70174431 C85.818206,2.70174431 84.9560258,3.12138196 84.3433473,3.96061831 C83.7306549,4.79987945 83.4243173,5.98128766 83.4243173,7.50484294 C83.4243173,9.02195631 83.7306549,10.2001347 84.3433473,11.0393817 C84.9560258,11.8786357 85.818206,12.2982557 86.929888,12.2982557 C88.0478727,12.2982557 88.9132096,11.8786357 89.5259054,11.0393817 C90.138577,10.2001347 90.4449319,9.02195631 90.4449319,7.50484294 C90.4449319,5.98128766 90.138577,4.79987945 89.5259054,3.96061831 C88.9132096,3.12138196 88.0478727,2.70174431 86.929888,2.70174431 L86.929888,2.70174431 Z M86.929888,0 C89.2037607,0 90.9849674,0.664957796 92.273515,1.99483443 C93.5620315,3.32473586 94.206314,5.16140536 94.206314,7.50484294 C94.206314,9.84183861 93.5620315,11.6752783 92.273515,13.0051656 C90.9849674,14.3350564 89.2037607,15 86.929888,15 C84.6623146,15 82.8826879,14.3350564 81.591001,13.0051656 C80.2993072,11.6752783 79.6534621,9.84183861 79.6534621,7.50484294 C79.6534621,5.16140536 80.2993072,3.32473586 81.591001,1.99483443 C82.8826879,0.664957796 84.6623146,0 86.929888,0 L86.929888,0 Z M95.5679377,0.261458555 L99.2156239,0.261458555 L99.2156239,5.53905906 L104.473978,0.261458555 L108.709087,0.261458555 L101.896911,7.1078104 L108.717209,14.7191732 L104.843485,14.7191732 L99.2156239,9.02517904 L99.2156239,14.7191732 L95.5679377,14.7191732 L95.5679377,0.261458555 Z M119.071497,0.716592213 L119.071497,3.77662909 C118.294576,3.42157341 117.536615,3.15365878 116.797614,2.9728852 C116.058592,2.79213641 115.360637,2.70175493 114.703746,2.70174431 C113.832086,2.70175493 113.187817,2.82441323 112.770947,3.06972275 C112.354063,3.31505352 112.145621,3.69594411 112.145628,4.21239453 C112.145621,4.59975181 112.28616,4.90155817 112.567245,5.11781713 C112.848316,5.33409734 113.358359,5.51969793 114.097377,5.67462951 L115.651199,5.99418918 C117.223957,6.31698574 118.341949,6.80762603 119.005174,7.4661065 C119.668379,8.12460469 120,9.06068921 120,10.2743707 C120,11.8689499 119.537316,13.0551992 118.611984,13.8331188 C117.68663,14.6110384 116.273347,15 114.372138,15 C113.475212,15 112.575135,14.9128483 111.671902,14.7385414 C110.768662,14.5642346 109.865425,14.3060058 108.962192,13.9638481 L108.962192,10.816656 C109.865425,11.3072999 110.738659,11.6768897 111.581896,11.9254361 C112.425119,12.173986 113.23835,12.2982592 114.021581,12.2982557 C114.817431,12.2982592 115.42696,12.1626888 115.850161,11.8915444 C116.273347,11.6204035 116.484946,11.2330568 116.484956,10.7295044 C116.484946,10.277604 116.34125,9.92899028 116.053866,9.6836666 C115.766461,9.43835353 115.193255,9.21885768 114.334239,9.02517904 L112.922539,8.70561583 C111.507673,8.39574558 110.473374,7.90187903 109.819636,7.22401617 C109.16589,6.54616747 108.839023,5.63267389 108.839023,4.48353896 C108.839023,3.04391263 109.293796,1.93674749 110.203353,1.16203999 C111.112903,0.38736083 112.420383,0 114.1258,0 C114.902704,0 115.701722,0.0597301836 116.522852,0.179148053 C117.343966,0.298594255 118.193513,0.477742308 119.071497,0.716592213 L119.071497,0.716592213 Z"/></g></svg>

<svg xmlns="http://www.w3.org/2000/svg" width="120" height="15"><g fill="none"><path fill="#0B2645" d="M0 .271h3.496l2.445 10.507L8.366.27h3.515l2.426 10.507L16.75.27h3.468L16.884 14.73h-4.207L10.109 3.738 7.57 14.728H3.363L0 .272zm22.616 0h3.647V14.73h-3.647V.27zm7.238 0h3.648V5.55L38.76.27h4.235l-6.812 6.846 7.513 7.612H39.13l-5.628-5.694v5.694h-3.648V.27zm15.046 0h3.647V14.73H44.9V.27z"/><path fill="#0A4E98" d="M57.64 5.859c.575 0 1.01-.13 1.308-.388.296-.258.445-.639.445-1.142 0-.497-.149-.877-.445-1.138-.297-.262-.733-.392-1.308-.392h-2.018v3.06h2.018zm.123 6.323c.733 0 1.284-.158 1.654-.474.37-.317.554-.795.554-1.434 0-.626-.183-1.095-.55-1.409-.366-.313-.919-.47-1.658-.47h-2.141v3.787h2.141zm3.392-5.2c.783.232 1.39.662 1.82 1.288.429.626.644 1.394.644 2.305 0 1.394-.462 2.433-1.384 3.118-.922.684-2.324 1.026-4.206 1.026h-6.055V.261h5.477c1.964 0 3.387.304 4.268.91.881.608 1.322 1.58 1.322 2.916 0 .703-.161 1.302-.484 1.796-.322.494-.79.86-1.402 1.099zm10.675-4.28c-1.111 0-1.974.42-2.586 1.259-.613.839-.92 2.02-.92 3.544 0 1.517.307 2.695.92 3.534.612.84 1.475 1.26 2.586 1.26 1.118 0 1.984-.42 2.596-1.26.613-.839.92-2.017.92-3.534 0-1.524-.307-2.705-.92-3.544-.612-.84-1.478-1.26-2.596-1.26zm0-2.702c2.274 0 4.055.665 5.344 1.995 1.288 1.33 1.933 3.166 1.933 5.51 0 2.337-.645 4.17-1.933 5.5C75.885 14.335 74.104 15 71.83 15c-2.267 0-4.047-.665-5.339-1.995-1.291-1.33-1.937-3.163-1.937-5.5 0-2.344.646-4.18 1.937-5.51C67.783.665 69.563 0 71.831 0zm15.1 2.702c-1.112 0-1.974.42-2.587 1.259-.612.839-.919 2.02-.919 3.544 0 1.517.307 2.695.92 3.534.612.84 1.474 1.26 2.586 1.26 1.118 0 1.983-.42 2.596-1.26.613-.839.919-2.017.919-3.534 0-1.524-.306-2.705-.92-3.544-.612-.84-1.477-1.26-2.595-1.26zm0-2.702c2.274 0 4.055.665 5.344 1.995 1.288 1.33 1.932 3.166 1.932 5.51 0 2.337-.644 4.17-1.932 5.5C90.985 14.335 89.204 15 86.93 15c-2.268 0-4.047-.665-5.339-1.995-1.292-1.33-1.938-3.163-1.938-5.5 0-2.344.646-4.18 1.938-5.51C82.883.665 84.662 0 86.93 0zm8.638.261h3.648V5.54l5.258-5.278h4.235l-6.812 6.847 6.82 7.611h-3.874l-5.627-5.694v5.694h-3.648V.261zm23.503.456v3.06a12.8 12.8 0 0 0-2.273-.804 8.828 8.828 0 0 0-2.094-.271c-.872 0-1.516.122-1.933.368-.417.245-.625.626-.625 1.142 0 .388.14.69.421.906.281.216.791.402 1.53.557l1.554.32c1.573.322 2.69.813 3.354 1.471.663.659.995 1.595.995 2.808 0 1.595-.463 2.781-1.388 3.56-.925.777-2.339 1.166-4.24 1.166-.897 0-1.797-.087-2.7-.261a16.433 16.433 0 0 1-2.71-.775v-3.147c.903.49 1.777.86 2.62 1.108a8.617 8.617 0 0 0 2.44.373c.795 0 1.405-.135 1.828-.406.423-.272.635-.659.635-1.162 0-.452-.144-.801-.431-1.046-.288-.246-.86-.465-1.72-.659l-1.411-.32c-1.415-.31-2.45-.803-3.103-1.481-.654-.678-.981-1.591-.981-2.74 0-1.44.455-2.547 1.364-3.322C111.113.387 112.42 0 114.126 0c.777 0 1.576.06 2.397.18.821.119 1.67.298 2.548.537z"/></g></svg>
